img/icon/level-C.svg

<svg width="30" height="30" viewBox="0 0 30 30" fill="none" xmlns="http://www.w3.org/2000/svg">
<rect width="30" height="30" rx="4" fill="url(#paint0_linear)"/>
<path d="M15.3472 21C13.2261 21 11.638 20.4703 10.5828 19.4108C9.52759 18.3513 9 16.8973 9 15.0486V14.9189C9 13.1351 9.57604 11.7027 10.7281 10.6216C11.891 9.54054 13.3607 9 15.1373 9C18.6689 9 20.5747 10.6 20.8546 13.8H16.397C16.3755 13.3568 16.2517 13.0162 16.0256 12.7784C15.8102 12.5297 15.5195 12.4054 15.1534 12.4054C14.0767 12.4054 13.5384 13.2378 13.5384 14.9027V15.0324C13.5384 16.7081 14.1036 17.5459 15.2342 17.5459C16.1171 17.5459 16.607 17.0811 16.7039 16.1514H21C20.9354 17.6973 20.3863 18.8919 19.3526 19.7351C18.3297 20.5784 16.9946 21 15.3472 21Z" fill="white"/>
<defs>
<linearGradient id="paint0_linear" x1="0" y1="0" x2="0" y2="30" gradientUnits="userSpaceOnUse">
<stop stop-color="#5986FB"/>
<stop offset="1" stop-color="#2D4EF5"/>
</linearGradient>
</defs>
</svg>

<svg width="30" height="30" fill="none" xmlns="http://www.w3.org/2000/svg"><rect width="30" height="30" rx="4" fill="url(#paint0_linear)"/><path d="M15.347 21c-2.12 0-3.709-.53-4.764-1.59C9.528 18.352 9 16.898 9 15.05v-.13c0-1.784.576-3.216 1.728-4.297C11.891 9.54 13.361 9 15.138 9c3.53 0 5.437 1.6 5.717 4.8h-4.458c-.021-.443-.145-.784-.371-1.022-.216-.248-.506-.373-.873-.373-1.076 0-1.615.833-1.615 2.498v.13c0 1.675.566 2.513 1.696 2.513.883 0 1.373-.465 1.47-1.395H21c-.065 1.546-.614 2.74-1.647 3.584C18.33 20.578 16.995 21 15.347 21z" fill="#fff"/><defs><linearGradient id="paint0_linear" x2="0" y2="30" gradientUnits="userSpaceOnUse"><stop stop-color="#5986FB"/><stop offset="1" stop-color="#2D4EF5"/></linearGradient></defs></svg>
